img/icons/electronic/smart-phone.svg

<svg xmlns="http://www.w3.org/2000/svg" viewBox="0 0 28 48"><defs><style>.cls-1{fill:#231f20}</style></defs><g id="Layer_2" data-name="Layer 2"><g id="Icons"><g id="Device_Electronic" data-name="Device / Electronic"><g id="Smart_Phone" data-name="Smart Phone"><path class="cls-1" d="M23 0H5a5 5 0 00-5 5v38a5 5 0 005 5h18a5 5 0 005-5V5a5 5 0 00-5-5zM5 2h18a3 3 0 013 3v33H2V5a3 3 0 013-3zm18 44H5a3 3 0 01-3-3v-3h24v3a3 3 0 01-3 3z"/><circle class="cls-1" cx="14" cy="43" r="2"/></g></g></g></g></svg>

<svg xmlns="http://www.w3.org/2000/svg" viewBox="0 0 28 48"><defs><style>.cls-1{fill:#231f20;}</style></defs><title>Smart Phone</title><g id="Layer_2" data-name="Layer 2"><g id="Icons"><g id="Device_Electronic" data-name="Device / Electronic"><g id="Smart_Phone" data-name="Smart Phone"><path class="cls-1" d="M23,0H5A5,5,0,0,0,0,5V43a5,5,0,0,0,5,5H23a5,5,0,0,0,5-5V5A5,5,0,0,0,23,0ZM5,2H23a3,3,0,0,1,3,3V38H2V5A3,3,0,0,1,5,2ZM23,46H5a3,3,0,0,1-3-3V40H26v3A3,3,0,0,1,23,46Z"/><circle class="cls-1" cx="14" cy="43" r="2"/></g></g></g></g></svg>
